svg/userTimelineFill.svg

<svg width="280" height="280" viewBox="0 0 280 280" fill="none" xmlns="http://www.w3.org/2000/svg">
<path d="M96.1254 84.7689C96.1254 60.3156 116.025 40.5 140.564 40.5C165.102 40.5 185.002 60.3156 185.002 84.7689C185.002 97.9174 179.197 110.058 169.555 118.324C193.785 130.391 209.852 156.379 209.852 185.592C209.852 188.077 207.837 190.092 205.352 190.092H74C71.5147 190.092 69.5 188.077 69.5 185.592C69.5 155.897 86.1002 129.565 110.937 117.769C101.668 109.512 96.1254 97.6176 96.1254 84.7689Z" fill="black"/>
<path d="M136.467 254.077C138.244 255.974 141.256 255.974 143.033 254.077L160.444 235.5H235.5C237.985 235.5 240 233.485 240 231C240 228.515 237.985 226.5 235.5 226.5H158.494C157.25 226.5 156.061 227.015 155.21 227.923L139.75 244.419L124.29 227.923C123.439 227.015 122.25 226.5 121.006 226.5H44C41.5147 226.5 39.5 228.515 39.5 231C39.5 233.485 41.5147 235.5 44 235.5H119.056L136.467 254.077Z" fill="#C4C4C4"/>
</svg>

<svg width="280" height="280" viewBox="0 0 280 280" xmlns="http://www.w3.org/2000/svg">
    <g fill-rule="nonzero" fill="#000">
        <path d="M136.467 254.077a4.5 4.5 0 0 0 6.566 0l17.41-18.577H235.5a4.5 4.5 0 0 0 0-9h-77.006a4.5 4.5 0 0 0-3.284 1.423l-15.46 16.496-15.46-16.496a4.5 4.5 0 0 0-3.284-1.423H44a4.5 4.5 0 0 0 0 9h75.056l17.41 18.577zM96.125 84.769c0-24.453 19.9-44.269 44.439-44.269 24.538 0 44.438 19.816 44.438 44.269 0 13.148-5.806 25.289-15.447 33.555 24.23 12.067 40.297 38.055 40.297 67.268a4.5 4.5 0 0 1-4.5 4.5H74a4.5 4.5 0 0 1-4.5-4.5c0-29.695 16.6-56.027 41.437-67.823-9.269-8.257-14.812-20.151-14.812-33z"/>
    </g>
</svg>
